!!!COM: Lassus, Rudolphus
!!!CDT: 1563-1625
!!!OPR: Geistliche Psalmen mit dreyen Stimmen
!!!ONM: 26
!!!OTL@@LA: Dominus illuminatio mea
!!!OTL-incipit@@DE: Gott ist mein liecht mein trost und hail
**kern	**text	**kern	**text	**kern	**text
*Ivox	*	*Ivox	*	*Ivox	*
*I"Bassus	*	*I"Tenor	*	*I"Cantus	*
*I'B	*	*I'T	*	*I'C	*
*clefC3	*	*clefC1	*	*clefC1	*
*k[]	*	*k[]	*	*k[]	*
*d:dor	*	*d:dor	*	*d:dor	*
*M2/1	*	*M2/1	*	*M2/1	*
*met(C|)	*	*met(C|)	*	*met(C|)	*
*MM180	*	*MM180	*	*MM180	*
=17	=17	=17	=17	=17	=17
0c	.	2g	-ner	4e	.
.	.	.	.	4f	.
.	.	2e	in	1g	.
.	.	2.a	sei-	.	.
.	.	.	.	1f	sei-
.	.	4a	-ner	.	.
=18	=18	=18	=18	=18	=18
1c	-ner	1g	hut/	.	.
.	.	.	.	2e	-ner
1F	hut/	2r	.	2.f	hut/
*	*	*	*	*	*Xij
!	!	!LO:TX:a:i:t=(c.f.)	!	!	!
.	.	2a	Für	.	.
.	.	.	.	4e	.
=19	=19	=19	=19	=19	=19
1r	.	2a	wem	4d	.
.	.	.	.	4e	.
.	.	2a	sol	4f	.
.	.	.	.	4d	.
2r	.	2g	mir	2e	.
!LO:TX:a:i:t=c.f.	!	!	!	!	!
2d	für	2.a	dann	2f	für
=20	=20	=20	=20	=20	=20
2d	wem	.	.	2.f	wem
.	.	4a	auß	.	.
2d	soll	2b	miß-	.	.
.	.	.	.	4f	sol
2c	mir	4cc	-trau-	2e	mir
.	.	4b	.	.	.
2d	dann	4a	.	2f	dann
.	.	4b	.	.	.
=21	=21	=21	=21	=21	=21
2e	auß	4cc	.	2g	auß
.	.	4b	.	.	.
2f	miß-	2.dd	.	2a	miß-
1e	-traw-	.	.	1g	-traw-
.	.	8cc#i	.	.	.
.	.	8b	.	.	.
.	.	2cc#i	.	.	.
=22	=22	=22	=22	=22	=22
1d	-en/	1dd	-en/	2a	-en
!	!	!	!	!LO:TX:a:i:t=(c.f.)	!
.	.	.	.	2a	mit
1r	.	2r	.	2b	schre-
.	.	2d	mit	2dd	-cken
=23	=23	=23	=23	=23	=23
!LO:TX:a:i:t=c.f.	!	!	!	!	!
1A	mit	2e	schre-	1cc#	graw-
.	.	2a	-cken	.	.
2B	schre-	4g	graw-	2dd	-en.
.	.	4d	.	.	.
*	*	*	*	*	*ij
2d	-cken	2f	.	2a	mit
=24	=24	=24	=24	=24	=24
1c#	graw-	2e	-en.	2a	schre-
*	*	*	*ij	*	*
.	.	2a	mit	2e	-cken
2d	-en	1a	schre-	2.f	graw-
*	*ij	*	*	*	*
2d	mit	.	.	.	.
.	.	.	.	4e	.
=25	=25	=25	=25	=25	=25
*	*	*	*	*lig	*
2G	schre-	2b-i	-cken	1d	.
2B-	-cken	2.dd	graw-	.	.
1A	graw-	.	.	1e	.
*	*	*	*	*Xlig	*
.	.	8cc#i	.	.	.
.	.	8b	.	.	.
.	.	2cc#i	.	.	.
=26	=26	=26	=26	=26	=26
0d	-en.	0dd	-en.	0d	-en.
==	==	==	==	==	==
*-	*-	*-	*-	*-	*-
!!!RDF**kern: l = terminal long
!!!RDF**kern: i = editorial accidental
